!!!!SEGMENT: pl-wnifc--13846--001-080_anonim--piesni-polskie-i-ruskie-ludu-galicyjskiego-80-nieszczescie-losem-mym-wlada.krn
!!!cenid: 18xx:3302
!!!COM: Anonim
!!!COM-rismID: pe30004985
!!!CDT:
!!!CNT:
!!!GTL: Pieśni polskie i ruskie ludu galicyjskiego
!!!OTL: 80. Nieszczęście losem mym włada
!!!OMV: 080
!!!PDT: 1833
!!!AGN:
!!!SMS-siglum: PL-Wnifc
!!!SMS-shelfmark: 13846
!!!SMS-shelfwork: 001-080 G
!!!SMS-variant:
!!!SMS-altvar:
!!!NIFC-rismSourceID: 1001036701
!!!NIFC-rismChildID: 1001037258
!!!NIFC-islandoraID: nifc:210326
!!!URL-pdf-islandora: https://repozytorium.nifc.pl/islandora/object/nifc%3A210326/datastream/PDF/view
!!!URL-scan:
!!!IIIF:
!!!ONB-nifc:
!!!AIN: 2 piano 1 vox
!!!key: A
!!!OMD: Allegretto.
**kern	**kern	**dynam	**kern	**text
*part3	*part2	*part2	*part1	*part1
*staff3	*staff2	*	*staff1	*staff1
*I"FORTEPIAN.	*I"FORTEPIAN.	*	*I"GŁOS.	*
*Ipiano	*Ipiano	*	*Ivox	*
*ICklav	*ICklav	*	*ICvox	*
*IGacmp	*IGacmp	*	*IGsolo	*
*clefF4	*clefG2	*	*clefG2	*
*k[f#c#g#]	*k[f#c#g#]	*	*k[f#c#g#]	*
*A:	*A:	*	*A:	*
*M6/8	*M6/8	*	*M6/8	*
!	!	!	!LO:TX:a:t=E.44.	!
8r	8ee 8e/	.	8ee\	Nie
=1	=1	=1	=1	=1
*^	*	*	*	*
(<8C#/L	4.AA^\	4cc# 4e/	.	4cc#\	szczę-
8E/	.	.	.	.	.
8A/J)	.	8cc#\	.	8cc#\	-ście
.	.	(8qcc#/	.	.	.
(<8D/L	4.AA^\	8b\L)	.	8b\L	lo-
8E/	.	8a\	.	8a\	-sem
8G#/J)	.	8b\J	.	8b\J	mym
=2	=2	=2	=2	=2	=2
8C#/L	4.AA\	(4.a/	.	4.a/	wła-
8E/	.	.	.	.	.
8A/J	.	.	.	.	.
8AA/L	4.AA\	4e 4c#/)	.	4e/	-da
8E/	.	.	.	.	.
8A/J	.	16a\LL	.	(16a\LL	war-
.	.	16cc#\JJ	.	16cc#\JJ)	.
=3	=3	=3	=3	=3	=3
8AA/L	4.AA\	4ee 4a 4e/	.	4ee\	-tam
(<8C#/	.	.	.	.	.
8A/J)	.	8ee 8a 8e/	.	8ee\	po-
!!LO:LB:g=original
(<8AA/L	4.AA\	(8ff#L 8a 8e\	.	8ff#\	-li-
8D/	.	8ee#X 8a 8e#X\)	.	8ee#X\	-to-
8A/J)	.	8ff#J 8a 8f#\	.	8ff#\	-wa-
=4	=4	=4	=4	=4	=4
(<8GG#/L	4.GG#\	4.b 4.e 4.B/	.	4.b\	-nia,
8BB/	.	.	.	.	.
8E/J)	.	.	.	.	.
8EE/L	4.EE\	8r	.	8r	.
8BB/	.	8r	.	8r	.
8E/J	.	8e/	.	8e/	ten
=5	=5	=5	=5	=5	=5
*	*	*^	*	*	*
!LO:TX:t=P:problem=mixed beam	!	!	!	!	!	!
8AAA/L	4AAA\	4cc# 4a 4e/	4.ryy	.	4cc#\	co
8c#\	.	.	.	.	.	.
8e>\J	2ryy	8cc# 8a/	.	.	8cc#\	me
4d 4B 4A\	.	8dd/L	4dd 4g# 4e\	.	8dd\	ser-
.	.	8cc#/	.	.	8cc#\	-ce
8d 8B 8A\	.	8dd/J	8dd 8g# 8e\	.	8dd\	po-
=6	=6	=6	=6	=6	=6	=6
4e 4c# 4A\	4.ryy	4ee/	4a 4gn\	.	4.ee\	-sia-
8e 8c# 8A\	.	8ee/	8a 8g\	.	.	.
!LO:TX:t=P:problem=mixed beam	!	!	!	!	!	!
8DD/L	4.DD\	4ff#/	4a 4f#\	.	4ff#\	-da
(8F#\	.	.	.	.	.	.
8B\J)	.	16dd\LL	8ryy	.	16dd\LL	nie
.	.	16b\JJ	.	.	16b\JJ	.
*	*	*v	*v	*	*	*
!!LO:LB:g=original
=7	=7	=7	=7	=7	=7
!LO:TX:t=P:problem=mixed beam	!	!	!	!	!
8EE/L	4.EE^\	4a/	.	4a/	czu-
(8A\	.	.	.	.	.
8c#\J)	.	8a/	.	8a/	-ły
8G#/L	4.E^\	8b/L	.	8b/	na
(<8B/	.	8a/	.	8a/	me
8d/J)	.	8b/J	.	8b/	wzdy-
=8	=8	=8	=8	=8	=8
8c#/	8A\L	4.a/	.	4.a/	-cha-
8ryy	8E\	.	.	.	.
8ryy	8EJ 8C#\	.	.	.	.
4E/	4C# 4AA\	8a/	.	8a/	-nia
.	.	8r	.	8r	.
=||	=||	=||	=||	=||	=||
8r	8ryy	8ee\	.	8ee\	O-
=9	=9	=9	=9	=9	=9
!LO:TX:t=P:problem=mixed beam	!	!	!	!	!
8AA#XL 8AAA#X/	4.AAA#\	4f# 4e 4c#/	.	4f#/	-błud-
8A\	.	.	.	.	.
8c#\J	.	8f#/	.	8f#/	-nik
!LO:TX:t=P:problem=mixed beam	!	!	!	!	!
!LO:N:vis=4.:note=1	!	!	!	!	!
8FF#L 8FFF#/	4.FFF#\	4ff#\	.	4ff#\	mi-
8A#X\	.	.	.	.	.
8c#\J	.	8ee 8cc# 8f#\	.	8ee\	-łość
!!LO:PB:g=original
=10	=10	=10	=10	=10	=10
8r	2.BB 2.BBB\	(4ee 4cc# 4f#\	.	4ee\	swą
8F#/L	.	.	.	.	.
8B/J	.	8dd 8b 8f#\)	.	8dd\	nie
8d/L	.	4dd 4b 4f#\	.	4dd\	raz
8B/	.	.	.	.	.
8F#/J	.	8r	.	8r	.
=11	=11	=11	=11	=11	=11
8GG#/L	4.GGG#^\	8e/L	.	8e/	za-
(<8BB/	.	8g#/	.	8g#/	-rę-
8E/J)	.	8b/J	.	8b/	-czał
(<8EE/L	4.EE\	4ee 4e\	.	4ee\	pun-
8G#/	.	.	.	.	.
8B/J)	.	8dd\	.	8dd\	-ktem
=12	=12	=12	=12	=12	=12
(<8AA/L	4.AA\	(4dd 4b 4g# [4e\	.	4dd\	ho-
8E/	.	.	.	.	.
8A/J)	.	8cc# 8a 8e\])	.	8cc#\	-no-
8AA/L	4.AA\	4cc# 4a 4e\	.	4cc#\	-ru;
(<8E/	.	.	.	.	.
8A/J)	.	8a/	.	8a/	jak
!!LO:LB:g=original
=13	=13	=13	=13	=13	=13
*	*	*^	*	*	*
!LO:TX:t=P:problem=mixed beam	!	!	!	!	!	!
8AAL 8AAA/	4.AAA\	4cc# 4a\	4ryy	.	4cc#\	źle,
!	!	!	!	!LO:HP:b=2	!	!
(8c#\	.	.	.	<	.	.
8e\J)	.	8cc# 8a\	8ryy	.	8cc#\	po-
4e 4B 4A\	8ryy	8dd/L	8g#\L	.	8dd\	-zna-
.	4ryy	8cc#/	8g#\	.	8cc#\	-łam
8e 8B 8A\	.	8dd/J	8g#\J	[	8dd\	te
*	*	*v	*v	*	*	*
=14	=14	=14	=14	=14	=14
!	!	!	!LO:HP:b=2	!	!
4e 4c# 4A\	4.ryy	4ee 4gn\	>	4.ee\	te-
8e 8c# 8A\	.	8ee 8g\	.	.	.
4d 4A 4D\	8d/L	4ff# 4f#\	.	4ff#\	-raz,
.	(8F#/	.	.	.	.
8ryy	8B/J)	16dd\LL	.	(16dd\LL	są-
.	.	16b\JJ	]	16b\JJ)	.
=15	=15	=15	=15	=15	=15
(<8E/L	4E^\	4a/	.	4a/	-dzić
8A/	.	.	.	.	.
8c#/J)	8ryy	8a/	.	8a/	o
.	.	8qcc#/	.	.	.
8EE/L	4.EE^\	8b\L	.	8b/	każ-
(<8G# 8E/	.	8a\	.	8g#/	-dym
8d/J)	.	8b\J	.	8a/	z po-
=16	=16	=16	=16	=16	=16
8c#/	8A\L	[4.a/	.	4.a/	-zo-
8ryy	8E\	.	.	.	.
2ryy	[8EJ [8C#\	.	.	.	.
.	8E] 8C#] 8AA\	8a/]	.	8a/	-ru
!	!LO:TX:t=P:problem=pojedyncza kreska taktowa	!LO:TX:t=P:problem=pojedyncza kreska taktowa	!	!LO:TX:t=P:problem=pojedyncza kreska taktowa	!
.	4r	4r	.	4r	.
*v	*v	*	*	*	*
==	==	==	==	==
*-	*-	*-	*-	*-
!!!system-decoration: s1{(s2,s3)}
!!!RDF**kern: > = above
!!!RDF**kern: < = below
!!!ENC: Anastazja Marusiak
!!!END: 2021-11-09
!!!ENC: Marta Lawrence
!!!END: 2021-11-11
!!!YEC: Copyright 2022 Narodowy Instytut Fryderyka Chopina (https://polishscores.org)
!!!YEM: License CC-BY-4.0 (https://creativecommons.org/licenses/by/4.0)
